dist/images/icons/user_liked.svg

<svg width="44" height="40" viewBox="0 0 44 40" fill="none" xmlns="http://www.w3.org/2000/svg">
<path d="M22.0002 37.4L21.5136 38.2736C21.8161 38.4421 22.1843 38.4421 22.4868 38.2736L22.0002 37.4ZM22.0002 9.15685L21.0799 9.54797C21.2367 9.91715 21.5991 10.1568 22.0002 10.1568C22.4013 10.1568 22.7636 9.91715 22.9205 9.54797L22.0002 9.15685ZM1.2002 13.1391C1.2002 20.2215 6.46051 26.5458 11.4349 30.9786C13.9539 33.2234 16.4683 35.0434 18.3508 36.3016C19.293 36.9313 20.0793 37.4218 20.632 37.756C20.9084 37.9232 21.1265 38.0513 21.2766 38.1382C21.3517 38.1817 21.4098 38.2149 21.4497 38.2376C21.4696 38.2489 21.485 38.2576 21.4957 38.2636C21.5011 38.2666 21.5053 38.269 21.5083 38.2706C21.5098 38.2715 21.511 38.2721 21.5118 38.2726C21.5123 38.2729 21.5127 38.2731 21.513 38.2733C21.5133 38.2735 21.5136 38.2736 22.0002 37.4C22.4868 36.5264 22.4869 36.5264 22.487 36.5265C22.4869 36.5264 22.4869 36.5264 22.4867 36.5263C22.4864 36.5262 22.4858 36.5258 22.4849 36.5253C22.4831 36.5243 22.4801 36.5226 22.4759 36.5203C22.4676 36.5156 22.4546 36.5083 22.4371 36.4983C22.4021 36.4784 22.349 36.4481 22.279 36.4076C22.1391 36.3266 21.9319 36.2048 21.6669 36.0446C21.1367 35.724 20.3762 35.2496 19.4621 34.6388C17.6321 33.4157 15.1965 31.6518 12.7655 29.4855C7.83988 25.0961 3.2002 19.29 3.2002 13.1391H1.2002ZM22.9205 8.76573C20.5393 3.16244 15.147 0.613988 10.3072 1.31315C7.88283 1.66338 5.59149 2.83041 3.90915 4.83535C2.22407 6.84355 1.2002 9.63141 1.2002 13.1391H3.2002C3.2002 10.0302 4.10132 7.71779 5.44124 6.12092C6.7839 4.5208 8.61756 3.578 10.5932 3.2926C14.5534 2.7205 19.0611 4.79753 21.0799 9.54797L22.9205 8.76573ZM40.8002 13.1391C40.8002 19.29 36.1605 25.0961 31.2349 29.4855C28.8039 31.6518 26.3683 33.4157 24.5383 34.6388C23.6242 35.2496 22.8637 35.724 22.3335 36.0446C22.0685 36.2048 21.8612 36.3266 21.7213 36.4076C21.6514 36.4481 21.5983 36.4784 21.5633 36.4983C21.5458 36.5083 21.5328 36.5156 21.5244 36.5203C21.5203 36.5226 21.5173 36.5243 21.5155 36.5253C21.5146 36.5258 21.514 36.5262 21.5137 36.5263C21.5135 36.5264 21.5135 36.5264 21.5134 36.5265C21.5135 36.5264 21.5136 36.5264 22.0002 37.4C22.4868 38.2736 22.4871 38.2735 22.4874 38.2733C22.4877 38.2731 22.4881 38.2729 22.4885 38.2726C22.4894 38.2721 22.4906 38.2715 22.4921 38.2706C22.4951 38.269 22.4993 38.2666 22.5046 38.2636C22.5153 38.2576 22.5308 38.2489 22.5507 38.2376C22.5906 38.2149 22.6487 38.1817 22.7238 38.1382C22.8739 38.0513 23.092 37.9232 23.3684 37.756C23.9211 37.4218 24.7074 36.9313 25.6496 36.3016C27.5321 35.0434 30.0465 33.2234 32.5655 30.9786C37.5399 26.5458 42.8002 20.2215 42.8002 13.1391H40.8002ZM22.9205 9.54797C24.9393 4.79753 29.447 2.7205 33.4072 3.2926C35.3828 3.578 37.2165 4.5208 38.5591 6.12092C39.8991 7.71779 40.8002 10.0302 40.8002 13.1391H42.8002C42.8002 9.63141 41.7763 6.84355 40.0912 4.83535C38.4089 2.83041 36.1176 1.66338 33.6932 1.31315C28.8534 0.613988 23.4611 3.16244 21.0799 8.76573L22.9205 9.54797Z" fill="#555555"/>
</svg>

<svg width="44" height="40" fill="none" xmlns="http://www.w3.org/2000/svg"><path d="M22 37.4l-.486.874a1 1 0 00.973 0L22 37.4zm0-28.243l-.92.391a1 1 0 001.84 0L22 9.157zM1.2 13.139c0 7.082 5.26 13.407 10.235 17.84 2.519 2.244 5.033 4.064 6.916 5.323.942.63 1.728 1.12 2.281 1.454a39.3 39.3 0 00.864.508l.012.007.004.002h.001L22 37.4l.487-.873-.002-.002-.01-.005-.038-.022-.158-.09c-.14-.081-.347-.203-.612-.363a58.39 58.39 0 01-2.205-1.406c-1.83-1.223-4.265-2.987-6.697-5.154C7.84 25.096 3.2 19.29 3.2 13.14h-2zm21.72-4.373C20.54 3.162 15.148.614 10.308 1.313c-2.424.35-4.716 1.517-6.398 3.522C2.224 6.844 1.2 9.631 1.2 13.14h2c0-3.109.901-5.421 2.241-7.018 1.343-1.6 3.177-2.543 5.152-2.828 3.96-.573 8.468 1.505 10.487 6.255l1.84-.782zm17.88 4.373c0 6.151-4.64 11.957-9.565 16.346-2.431 2.167-4.867 3.93-6.697 5.154a58.39 58.39 0 01-2.204 1.406 38.133 38.133 0 01-.81.475l-.009.005-.001.001.486.874.487.873h.002l.003-.002.013-.007a9.415 9.415 0 00.219-.126 39.3 39.3 0 00.644-.382 60.227 60.227 0 002.282-1.454c1.882-1.259 4.397-3.079 6.916-5.323C37.54 26.546 42.8 20.22 42.8 13.139h-2zM22.92 9.548c2.02-4.75 6.527-6.828 10.487-6.255 1.976.285 3.81 1.228 5.152 2.828 1.34 1.597 2.241 3.91 2.241 7.018h2c0-3.508-1.024-6.295-2.709-8.304-1.682-2.005-3.973-3.172-6.398-3.522-4.84-.699-10.232 1.85-12.613 7.453l1.84.782z" fill="#555"/></svg>
